X: 6858
T: Charlie Mulvihill's
R: hornpipe
M: 4/4
K: Gmajor
(3DEF|:GFGA BAGF|EGAG FDEF|GFGB dedB|AGEG A2(3B^B^c|
dedc BAGF|EGAG FDEF|GF GedB G B|1 ADFA G2 (3DEF:|2 ADFA G2 (3def||
|:g>Gf>Ge> Gd>c|BGBd g2 (3efg|a>Gg>Gf>Ge>G|(3ded ^ce d2 (3def|
g>Gf>Ge> Gd>c|BGBd gdBd|cBce dBGB|1 ADFA G2 (3def:|2 ADFA G3||

